!!!!SEGMENT: pl-wtm--r-1226--021_lodwigowski-edward-stefan--podkoweczki-dajcie-ognia.krn
!!!cenid: 18xx:1937
!!!COM: Łodwigowski, Edward Stefan
!!!COM-rismid: pe30111147
!!!CDT: 1815/08/14-1895/11/12
!!!CNT: Polish
!!!OTL: Podkoweczki dajcie ognia
!!!PDT:
!!!AGN:
!!!SMS-siglum: PL-Wtm
!!!SMS-shelfmark: R 1226
!!!SMS-shelfwork: 021 W
!!!SMS-variant:
!!!SMS-altvar:
!!!NIFC-rismid: 1001084011
!!!URL-scan: http://repozytorium.nifc.pl/skany/pl-wtm-nut--r1226-1227
!!!ONB-nifc: UWAGA: No. 69
!!!OMD: Allegretto
!!!key:
**kern	**fing	**kern	**fing
*part1	*part1	*part1	*part1
*staff2	*staff2	*staff1	*staff1
*>[A,A,B,B]	*>[A,A,B,B]	*>[A,A,B,B]	*>[A,A,B,B]
*>A	*>A	*>A	*>A
*Iforte	*	*Iforte	*
*I"Fortepian	*	*I"Fortepian	*
*clefF4	*	*clefG2	*
*k[b-]	*	*k[b-]	*
*F:	*	*F:	*
*M3/4	*	*M3/4	*
*all\right	*	*all\right	*
=1	=1	=1	=1
*^	*	*	*
*2\right	*2\right	*below	*	*
!	!	!	!LO:TX:a:i:t=podkóweczki dajcie ognia. P&colon; L&colon; P&colon;	!
!LO:N:vis=2	!	!	!LO:TX:a:Bi:t=No 69.	!
4F	2.F\	4	(8dd\L	1
.	.	.	8ff\J)	4
4c 4A\	.	.	4ff\	3
.	.	.	(8qgg/	.
4c 4A\	.	.	8ff\L)	.
.	.	.	8ee\J	.
=2	=2	=2	=2	=2
!LO:N:vis=2	!	!	!	!
4F	2.F\	.	8ff\L	3
.	.	.	8aa\J	5
4c 4A\	.	.	(4ff\	4
4c 4A\	.	.	8ee\L	.
.	.	.	8dd\J)	.
=3	=3	=3	=3	=3
!LO:N:vis=2	!	!	!	!
4C	2.C\	.	(8cc\L	1
.	.	.	8ee\J)	3
4B- 4G\	.	.	4ee\	2
.	.	.	(8qff/	.
4B- 4G\	.	.	(8ee\L)	.
.	.	.	8dd\J)	.
=4	=4	=4	=4	=4
!LO:N:vis=2	!	!	!	!
4C	2C\	.	(8ee\L	.
.	.	.	8ff\	.
4B- 4E\	.	.	8gg\	.
.	.	.	8aa\J	.
8A 8F'\	4ryy	.	8ff'\)	.
8r	.	.	8r	.
!!LO:LB:g=original
=5:|!|:	=5:|!|:	=5:|!|:	=5:|!|:	=5:|!|:
*>B	*>B	*>B	*>B	*>B
!LO:N:vis=2	!	!	!	!
4F	2F\	.	(8aa\L	2
.	.	.	8bb-\J	.
4c 4A\	.	.	4ccc\)	.
.	.	.	(8qddd/	.
4c 4A 4E-X\	4ryy	.	8ccc\L)	.
.	.	.	8bbn\J	.
=6	=6	=6	=6	=6
!LO:N:vis=2	!	!	!	!
4D	2.D\	.	8.ccc\L	.
.	.	.	16ccc\Jk	.
4c 4A 4F#X\	.	.	4.ddd\	.
4c 4A 4F#\	.	.	.	.
.	.	.	8ccc\	.
=7	=7	=7	=7	=7
!LO:N:vis=2	!	!	!	!
4G	2G\	.	(8bb-\L	.
.	.	.	8aa\J	.
4d 4B-\	.	.	4bb-\)	.
.	.	.	(8qccc/	.
4d-X 4B- 4F\	4ryy	.	8bb-\L)	.
.	.	.	8aa\J	.
=8	=8	=8	=8	=8
!LO:N:vis=2	!	!	!	!
4E	2.E\	.	8.bb-\L	.
.	.	.	16bb-\Jk	.
4c 4B- 4G\	.	.	4.ccc\	.
4c 4B- 4G\	.	.	.	.
.	.	.	8bb-\	.
!!LO:LB:g=original
=9	=9	=9	=9	=9
!LO:N:vis=2	!	!	!	!
4F	2.F\	.	4aa\	.
4c 4A\	.	.	4ff\	.
.	.	.	(8qgg/	4
4c 4A\	.	.	8ff\L)	.
.	.	.	8ee\J	.
=10	=10	=10	=10	=10
!LO:N:vis=2	!	!	!	!
4F	2.F\	.	8ff'\L	.
.	.	.	8aa\J	.
4c 4A\	.	.	(4ff\	4
4c 4A\	.	.	8ee\L	.
.	.	.	8dd\J)	.
=11	=11	=11	=11	=11
!LO:N:vis=2	!	!	!	!
4C	2.C\	.	(8cc\L	1
.	.	.	8ee\J)	3
4B- 4G\	.	.	4ee\	2
.	.	.	(8qff/	.
4B- 4G\	.	.	(8ee\L)	.
.	.	.	8dd\J)	.
=12	=12	=12	=12	=12
!LO:N:vis=2	!	!	!	!
4C	2C\	.	(8ee\L	.
.	.	.	8ff\	.
4B- 4E\	.	.	8gg\	.
.	.	.	8aa\J)	.
8A 8F'\	4ryy	.	8ff'\	.
8r	.	.	8r	.
*v	*v	*	*	*
=:|!	=:|!	=:|!	=:|!
*-	*-	*-	*-
!!!system-decoration: {p1}
!!!RDF**kern: > = above
!!!RDF**kern: < = below
!!!AIN: 1 forte
!!!ENC: Andrzej Kubiczek
!!!END: 2021-05-02
!!!ENC: Marcin Jachim
!!!END: 2021-04-17
